images/sponsor_transistor.svg

<svg width="182" height="51" viewBox="0 0 182 51" fill="none" xmlns="http://www.w3.org/2000/svg">
<g clip-path="url(#clip0)">
<path d="M67.4231 18.178V15.687H78.3801V18.178H74.3041V32.053H71.4701V18.178H67.4231ZM85.5211 22.755C85.0821 22.677 84.637 22.6382 84.1911 22.639C82.3701 22.639 81.3011 23.827 81.3011 26.231V32.024H78.6111V20.554H81.2421V22.176H81.3001C81.8201 21.191 82.9771 20.176 84.5101 20.176C84.9431 20.176 85.2321 20.206 85.5211 20.235V22.755V22.755ZM98.3871 32.024H95.7851V30.576H95.7271C94.9471 31.561 93.7031 32.459 91.7951 32.459C89.2221 32.459 86.3021 30.402 86.3021 26.289C86.3021 22.639 88.8751 20.206 91.9971 20.206C93.9051 20.206 95.0621 21.219 95.7561 22.117H95.8141V20.553H98.4161V32.024H98.3861H98.3871ZM92.4891 30.084C94.2521 30.084 95.9001 28.548 95.9001 26.346C95.9001 24.029 94.3971 22.494 92.5181 22.494C90.1471 22.494 89.0191 24.406 89.0191 26.289C89.0191 28.2 90.1181 30.083 92.4891 30.083V30.084ZM101.51 20.553H104.17V22.002H104.227C105.123 20.698 106.453 20.177 107.725 20.177C110.096 20.177 112.178 21.741 112.178 25.42V32.024H109.488V25.564C109.488 23.594 108.564 22.552 107.031 22.552C105.354 22.552 104.198 23.74 104.198 25.97V32.053H101.509V20.553H101.51ZM120.302 23.508C120.186 22.668 119.55 22.118 118.769 22.118C117.844 22.118 117.324 22.697 117.324 23.334C117.324 24.029 117.671 24.522 119.665 25.188C122.123 25.97 122.99 27.245 122.99 28.867C122.99 30.981 121.4 32.459 118.769 32.459C116.023 32.459 114.664 30.952 114.461 28.809H116.948C117.063 29.765 117.642 30.489 118.827 30.489C119.839 30.489 120.417 29.852 120.417 29.069C120.417 28.201 119.926 27.65 118.018 27.013C115.878 26.318 114.779 25.246 114.779 23.45C114.779 21.567 116.254 20.177 118.682 20.177C121.14 20.177 122.441 21.625 122.73 23.507H120.302V23.508ZM125.332 15.281H128.31V18.004H125.332V15.281V15.281ZM125.477 20.553H128.165V32.053H125.477V20.553V20.553ZM136.463 23.508C136.347 22.668 135.711 22.118 134.93 22.118C134.005 22.118 133.485 22.697 133.485 23.334C133.485 24.029 133.832 24.522 135.827 25.188C138.284 25.97 139.151 27.245 139.151 28.867C139.151 30.981 137.561 32.459 134.93 32.459C132.184 32.459 130.825 30.952 130.623 28.809H133.109C133.225 29.765 133.803 30.489 134.988 30.489C136 30.489 136.578 29.852 136.578 29.069C136.578 28.201 136.087 27.65 134.179 27.013C132.039 26.318 130.941 25.246 130.941 23.45C130.941 21.567 132.415 20.177 134.844 20.177C137.301 20.177 138.602 21.625 138.891 23.507H136.463V23.508ZM140.308 20.553H141.753V16.875H144.442V20.553H147.304V22.813H144.413V27.94C144.413 29.504 144.905 29.939 146.003 29.939C146.466 29.939 146.986 29.852 147.391 29.736V31.908C146.784 32.082 146.032 32.169 145.367 32.169C142.505 32.169 141.753 30.431 141.753 28.085V22.813H140.308V20.553V20.553ZM154.619 20.177C158.204 20.177 160.748 22.813 160.748 26.289C160.748 29.678 158.175 32.459 154.619 32.459C151.121 32.459 148.49 29.765 148.49 26.289C148.49 22.726 151.15 20.177 154.619 20.177ZM154.619 30.054C156.643 30.054 158.03 28.432 158.03 26.289C158.03 24.261 156.729 22.552 154.619 22.552C152.566 22.552 151.207 24.145 151.207 26.289C151.207 28.49 152.769 30.054 154.619 30.054ZM168.671 22.639C166.849 22.639 165.78 23.827 165.78 26.231V32.024H163.091V20.554H165.722V22.176H165.78C166.3 21.191 167.456 20.176 168.989 20.176C169.422 20.176 169.711 20.206 170.001 20.235V22.755C169.562 22.677 169.117 22.6382 168.671 22.639V22.639ZM32.8161 37.731C32.4478 37.7304 32.0948 37.5838 31.8345 37.3232C31.5743 37.0625 31.4281 36.7093 31.4281 36.341V11.37C31.4281 10.617 32.0351 9.97998 32.8151 9.97998C33.1834 9.98051 33.5364 10.1272 33.7967 10.3878C34.0569 10.6484 34.2031 11.0017 34.2031 11.37V36.34C34.2031 37.093 33.5671 37.73 32.8161 37.73V37.731ZM27.0331 25.247H20.3831C20.015 25.2462 19.6622 25.0994 19.4022 24.8388C19.1421 24.5782 18.9961 24.2251 18.9961 23.857C18.9961 23.074 19.6031 22.466 20.3841 22.466H27.0341C27.4027 22.466 27.7563 22.6124 28.017 22.8731C28.2776 23.1338 28.4241 23.4873 28.4241 23.856C28.4241 24.2246 28.2776 24.5782 28.017 24.8389C27.7563 25.0995 27.4027 25.246 27.0341 25.246L27.0331 25.247ZM45.2761 25.247H38.5981C38.2298 25.2465 37.8768 25.0998 37.6165 24.8392C37.3563 24.5785 37.2101 24.2253 37.2101 23.857C37.2101 23.074 37.8171 22.466 38.5981 22.466H45.2481C45.6162 22.4668 45.969 22.6136 46.229 22.8742C46.4891 23.1348 46.6351 23.4879 46.6351 23.856C46.6351 24.638 46.0281 25.246 45.2761 25.246V25.247Z" fill="#9FA6B2"/>
<path d="M32.816 44.712C21.338 44.712 12 35.356 12 23.856C12 12.356 21.338 3 32.816 3C44.294 3 53.632 12.356 53.632 23.856C53.632 35.356 44.294 44.712 32.816 44.712ZM32.816 5.781C22.871 5.781 14.776 13.891 14.776 23.856C14.776 33.821 22.871 41.931 32.816 41.931C42.762 41.931 50.856 33.821 50.856 23.856C50.856 13.891 42.763 5.781 32.817 5.781H32.816Z" fill="#9FA6B2"/>
</g>
<defs>
<clipPath id="clip0">
<rect width="158" height="48" fill="white" transform="translate(12)"/>
</clipPath>
</defs>
</svg>

<svg xmlns="http://www.w3.org/2000/svg" width="182" height="51" fill="none"  xmlns:v="https://vecta.io/nano"><g clip-path="url(#A)" fill="#9fa6b2"><path d="M67.423 18.178v-2.5H78.38v2.5h-4.076v13.875H71.47V18.178h-4.047zm18.098 4.577c-.44-.078-.884-.117-1.33-.116-1.82 0-2.9 1.188-2.9 3.592v5.793h-2.7v-11.47h2.63v1.622h.058c.52-.985 1.677-2 3.2-2a8.76 8.76 0 0 1 1.01.06v2.52zm12.866 9.27h-2.602v-1.448h-.058c-.78.985-2.024 1.883-3.932 1.883-2.573 0-5.493-2.057-5.493-6.17 0-3.65 2.573-6.083 5.695-6.083 1.908 0 3.065 1.013 3.76 1.9h.058v-1.564h2.602v11.47h-.03zm-5.898-1.94c1.763 0 3.4-1.536 3.4-3.738 0-2.317-1.503-3.852-3.382-3.852-2.37 0-3.5 1.912-3.5 3.795 0 1.9 1.1 3.794 3.47 3.794v.001zm9.02-9.53h2.66v1.45h.057c.896-1.304 2.226-1.825 3.498-1.825 2.37 0 4.453 1.564 4.453 5.243v6.604h-2.7v-6.46c0-1.97-.924-3.012-2.457-3.012-1.677 0-2.833 1.188-2.833 3.418v6.083h-2.7l.001-11.5zM120.3 23.5c-.116-.84-.752-1.4-1.533-1.4-.925 0-1.445.58-1.445 1.216 0 .695.347 1.188 2.34 1.854 2.458.782 3.325 2.057 3.325 3.68 0 2.114-1.6 3.592-4.22 3.592-2.746 0-4.105-1.507-4.308-3.65h2.487c.115.956.694 1.68 1.88 1.68 1.012 0 1.6-.637 1.6-1.42 0-.868-.5-1.42-2.4-2.056-2.14-.695-3.24-1.767-3.24-3.563 0-1.883 1.475-3.273 3.903-3.273 2.458 0 3.76 1.448 4.048 3.33H120.3h0zm5.03-8.227h2.978v2.723h-2.978V15.28zm.145 5.272h2.688v11.5h-2.688v-11.5zm10.986 2.955c-.116-.84-.752-1.4-1.533-1.4-.925 0-1.445.58-1.445 1.216 0 .695.347 1.188 2.342 1.854 2.457.782 3.324 2.057 3.324 3.68 0 2.114-1.6 3.592-4.22 3.592-2.746 0-4.105-1.507-4.307-3.65h2.486c.116.956.694 1.68 1.88 1.68 1.012 0 1.6-.637 1.6-1.42 0-.868-.5-1.42-2.4-2.056-2.14-.695-3.238-1.767-3.238-3.563 0-1.883 1.474-3.273 3.903-3.273 2.457 0 3.758 1.448 4.047 3.33h-2.428 0zm3.845-2.955h1.445v-3.678h2.7v3.678h2.862v2.26h-2.9v5.127c0 1.564.492 2 1.6 2 .463 0 .983-.087 1.388-.203v2.172c-.607.174-1.36.26-2.024.26-2.862 0-3.614-1.738-3.614-4.084v-5.272h-1.445v-2.26zm14.3-.376c3.585 0 6.13 2.636 6.13 6.112 0 3.4-2.573 6.17-6.13 6.17-3.498 0-6.13-2.694-6.13-6.17 0-3.563 2.66-6.112 6.13-6.112zm0 9.877c2.024 0 3.4-1.622 3.4-3.765 0-2.028-1.3-3.737-3.4-3.737-2.053 0-3.412 1.593-3.412 3.737 0 2.2 1.562 3.765 3.412 3.765zm14.052-7.415c-1.822 0-2.9 1.188-2.9 3.592v5.793h-2.7v-11.47h2.63v1.622h.058c.52-.985 1.676-2 3.2-2 .433 0 .722.03 1.012.06v2.52c-.44-.078-.884-.117-1.33-.116h0zM32.816 37.73a1.39 1.39 0 0 1-1.388-1.39V11.37a1.39 1.39 0 0 1 2.369-.982 1.39 1.39 0 0 1 .406.982v24.97a1.41 1.41 0 0 1-1.387 1.39h0zm-5.783-12.484h-6.65a1.39 1.39 0 0 1-1.387-1.39 1.37 1.37 0 0 1 1.388-1.391h6.65a1.39 1.39 0 1 1 0 2.78l-.001.001zm18.243 0h-6.678a1.39 1.39 0 0 1-1.388-1.39 1.37 1.37 0 0 1 1.388-1.391h6.65a1.39 1.39 0 0 1 1.387 1.39c0 .782-.607 1.4-1.36 1.4v.001zm-12.46 19.466C21.338 44.712 12 35.356 12 23.856S21.338 3 32.816 3s20.816 9.356 20.816 20.856-9.338 20.856-20.816 20.856zm0-38.93c-9.945 0-18.04 8.1-18.04 18.075S22.87 41.93 32.816 41.93s18.04-8.1 18.04-18.075S42.763 5.78 32.817 5.78h-.001z"/></g><defs><clipPath id="A"><path fill="#fff" transform="translate(12)" d="M0 0h158v48H0z"/></clipPath></defs></svg>
